X:15210
T:Senpolska e. Harald Johansson, N\"asteln
S:\"O S'slag CD
R:Polska
O:Sweden
M:3/4
I:speed 186
A:J\"amtland
K:DDor
a>g ba g>e| fe/f/ af e>^c| \
d>e fg/f/ e^c|d>e (3fed ^cA|\
a>g ba g>e| fe/f/ af e>^c|
d>e fg/f/ e^c|de/f/ d4 ::\
K:Dm
A>B AG F>E| D>^c df e>c|
A>B AG F>E| D/E/F E4|\
A>B AG F>E| D>^c df e>c|\
A>B AG FE/D/| ED/^C/ D4 :|
